svg/other/virus_line.svg

<?xml version="1.0" encoding="UTF-8"?>
<svg width="24px" height="24px" viewBox="0 0 24 24" version="1.1" xmlns="http://www.w3.org/2000/svg" xmlns:xlink="http://www.w3.org/1999/xlink">
    <title>virus_line</title>
    <g id="Icon" stroke="none" stroke-width="1" fill="none" fill-rule="evenodd">
        <g id="Other" transform="translate(-482.000000, -96.000000)">
            <g id="virus_line" transform="translate(482.000000, 96.000000)">
                <path d="M24,0 L24,24 L0,24 L0,0 L24,0 Z M12.5935,23.2578 L12.5819,23.2595 L12.5109,23.295 L12.4919,23.2987 L12.4767,23.295 L12.4057,23.2595 C12.3958,23.2564 12.387,23.259 12.3821,23.2649 L12.378,23.2758 L12.3609,23.7031 L12.3659,23.7235 L12.3769,23.7357 L12.4805,23.8097 L12.4953,23.8136 L12.5071,23.8097 L12.6107,23.7357 L12.6233,23.7197 L12.6267,23.7031 L12.6096,23.2758 C12.6076,23.2657 12.601,23.2593 12.5935,23.2578 Z M12.8584,23.1453 L12.8445,23.1473 L12.6598,23.2397 L12.6499,23.2499 L12.6472,23.2611 L12.6651,23.6906 L12.6699,23.7034 L12.6784,23.7105 L12.8793,23.8032 C12.8914,23.8069 12.9022,23.803 12.9078,23.7952 L12.9118,23.7812 L12.8777,23.1665 C12.8753,23.1546 12.8674,23.147 12.8584,23.1453 Z M12.143,23.1473 C12.1332,23.1424 12.1222,23.1453 12.1156,23.1526 L12.1099,23.1665 L12.0758,23.7812 C12.0751,23.7927 12.0828,23.8019 12.0926,23.8046 L12.1083,23.8032 L12.3092,23.7105 L12.3186,23.7024 L12.3225,23.6906 L12.3404,23.2611 L12.3372,23.2485 L12.3278,23.2397 L12.143,23.1473 Z" id="MingCute" fill-rule="nonzero"></path>
                <path d="M10,3 C10,2.44772 10.4477,2 11,2 L13,2 C13.5523,2 14,2.44772 14,3 C14,3.55228 13.5523,4 13,4 L13,6.08296 C13.9117,6.23591 14.7536,6.59444 15.4765,7.10925 L16.9497,5.63604 C16.5592,5.24551 16.5592,4.61235 16.9497,4.22183 C17.3403,3.8313 17.9734,3.8313 18.364,4.22183 L19.7782,5.63604 C20.1687,6.02656 20.1687,6.65973 19.7782,7.05025 C19.3876,7.44078 18.7545,7.44078 18.364,7.05025 L16.8907,8.52347 C17.4056,9.2464 17.7641,10.0883 17.917,11 L20,11 C20,10.4477 20.4477,10 21,10 C21.5523,10 22,10.4477 22,11 L22,13 C22,13.5523 21.5523,14 21,14 C20.4477,14 20,13.5523 20,13 L17.917,13 C17.7641,13.9117 17.4056,14.7536 16.8907,15.4765 L18.364,16.9497 C18.7545,16.5592 19.3877,16.5592 19.7782,16.9497 C20.1687,17.3403 20.1687,17.9734 19.7782,18.364 L18.364,19.7782 C17.9734,20.1687 17.3403,20.1687 16.9497,19.7782 C16.5592,19.3876 16.5592,18.7545 16.9497,18.364 L15.4765,16.8907 C14.7536,17.4056 13.9117,17.7641 13,17.917 L13,20 C13.5523,20 14,20.4477 14,21 C14,21.5523 13.5523,22 13,22 L11,22 C10.4477,22 10,21.5523 10,21 C10,20.4477 10.4477,20 11,20 L11,17.917 C10.0883,17.7641 9.2464,17.4056 8.52347,16.8907 L7.05025,18.364 C7.44078,18.7545 7.44078,19.3876 7.05025,19.7782 C6.65973,20.1687 6.02656,20.1687 5.63604,19.7782 L4.22183,18.364 C3.8313,17.9734 3.8313,17.3403 4.22183,16.9497 C4.61235,16.5592 5.24551,16.5592 5.63604,16.9497 L7.10925,15.4765 C6.59444,14.7536 6.23591,13.9117 6.08296,13 L4,13 C4,13.5523 3.55228,14 3,14 C2.44772,14 2,13.5523 2,13 L2,11 C2,10.4477 2.44772,10 3,10 C3.55228,10 4,10.4477 4,11 L6.08296,11 C6.23591,10.0883 6.59444,9.2464 7.10925,8.52347 L5.63604,7.05025 C5.24551,7.44078 4.61235,7.44078 4.22183,7.05025 C3.8313,6.65973 3.8313,6.02656 4.22183,5.63604 L5.63604,4.22183 C6.02656,3.8313 6.65973,3.8313 7.05025,4.22183 C7.44078,4.61235 7.44078,5.24551 7.05025,5.63604 L8.52347,7.10925 C9.2464,6.59444 10.0883,6.23591 11,6.08296 L11,4 C10.4477,4 10,3.55228 10,3 Z M8,12 C8,14.2091 9.79086,16 12,16 C14.2091,16 16,14.2091 16,12 C16,9.79086 14.2091,8 12,8 C9.79086,8 8,9.79086 8,12 Z" id="形状" fill="#09244B"></path>
            </g>
        </g>
    </g>
</svg>

<svg xmlns="http://www.w3.org/2000/svg" width="24" height="24"><g fill="none" fill-rule="evenodd"><path d="M24 0v24H0V0h24ZM12.594 23.258l-.012.002-.071.035-.02.004-.014-.004-.071-.036c-.01-.003-.019 0-.024.006l-.004.01-.017.428.005.02.01.013.104.074.015.004.012-.004.104-.074.012-.016.004-.017-.017-.427c-.002-.01-.009-.017-.016-.018Zm.264-.113-.014.002-.184.093-.01.01-.003.011.018.43.005.012.008.008.201.092c.012.004.023 0 .029-.008l.004-.014-.034-.614c-.003-.012-.01-.02-.02-.022Zm-.715.002a.023.023 0 0 0-.027.006l-.006.014-.034.614c0 .012.007.02.017.024l.015-.002.201-.093.01-.008.003-.011.018-.43-.003-.012-.01-.01-.184-.092Z"/><path fill="#09244B" d="M10 3a1 1 0 0 1 1-1h2a1 1 0 1 1 0 2v2.083a5.967 5.967 0 0 1 2.476 1.026l1.474-1.473a1 1 0 0 1 1.414-1.414l1.414 1.414a1 1 0 0 1-1.414 1.414l-1.473 1.473A5.966 5.966 0 0 1 17.917 11H20a1 1 0 1 1 2 0v2a1 1 0 1 1-2 0h-2.083a5.966 5.966 0 0 1-1.026 2.476l1.473 1.474a1 1 0 0 1 1.414 1.414l-1.414 1.414a1 1 0 0 1-1.414-1.414l-1.473-1.473A5.966 5.966 0 0 1 13 17.917V20a1 1 0 1 1 0 2h-2a1 1 0 1 1 0-2v-2.083a5.966 5.966 0 0 1-2.477-1.026L7.05 18.364a1 1 0 1 1-1.414 1.414l-1.414-1.414a1 1 0 0 1 1.414-1.414l1.473-1.473A5.967 5.967 0 0 1 6.083 13H4a1 1 0 1 1-2 0v-2a1 1 0 1 1 2 0h2.083a5.968 5.968 0 0 1 1.026-2.477L5.636 7.05a1 1 0 1 1-1.414-1.414l1.414-1.414A1 1 0 1 1 7.05 5.636l1.473 1.473A5.968 5.968 0 0 1 11 6.083V4a1 1 0 0 1-1-1Zm-2 9a4 4 0 1 0 8 0 4 4 0 0 0-8 0Z"/></g></svg>
